Catalina-light/actions/symbolic/zoom-out.svg

<svg width="16" height="16" viewBox="0 0 16 16" xmlns="http://www.w3.org/2000/svg">
<defs>
<style id="current-color-scheme" type="text/css">.ColorScheme-Text { color:#5c616c; } .ColorScheme-Highlight { color:#5294e2; }</style>
</defs>
<path class="ColorScheme-Text" d="m3 2c-0.554 0-1 0.446-1 1v10c0 0.554 0.446 1 1 1h10c0.554 0 1-0.446 1-1v-10c0-0.554-0.446-1-1-1h-10zm2 5h6v2h-6v-2z" fill="currentColor"/>
</svg>

<svg xmlns="http://www.w3.org/2000/svg" width="16" height="16" viewBox="0 0 16 16">
 <defs>
  <style id="current-color-scheme" type="text/css">
   .ColorScheme-Text { color:#5c616c; } .ColorScheme-Highlight { color:#5294e2; }
  </style>
 </defs>
 <path style="fill:currentColor" class="ColorScheme-Text" d="M 3 2 C 2.446 2 2 2.446 2 3 L 2 13 C 2 13.554 2.446 14 3 14 L 13 14 C 13.554 14 14 13.554 14 13 L 14 3 C 14 2.446 13.554 2 13 2 L 3 2 z M 5 7 L 11 7 L 11 9 L 5 9 L 5 7 z"/>
</svg>
